icon-themes/sifr_svg/cmd/lc_grafattrcrop.svg

<svg viewBox="0 0 24 24" xmlns="http://www.w3.org/2000/svg"><g fill="#555753"><path d="m3 2v2h-2v2h4v-4zm16 0v4h4v-2h-2v-2zm-12 2v1h2v-1zm4 0v1h2v-1zm4 0v1h2v-1zm-12 3v2h1v-2zm17 0v2h1v-2zm-17 4v2h1v-2zm13 0v1.503906c.628416.471311.998772 1.210576 1 1.996094 0 1.380712-1.119288 2.5-2.5 2.5-.786206-.000614-1.526324-.371035-1.998047-1h-1.501953v1.857422c1.371429 1.321851 2.804414 1.714844 4.115234 1.714844h2.742188l3.427734 3.427734h1.714844v-1.714844l-3.427734-3.427734v-2.742188c0-1.511964-.368607-2.743805-1.714844-4.115234zm-13 4v2h1v-2zm-2 3v2h2v2h2v-4zm6 1v1h2v-1z"/><path d="m17 7a2 2 0 0 0 -2 2 2 2 0 0 0 .269531 1h3.458985a2 2 0 0 0 .271484-1 2 2 0 0 0 -2-2zm-7 4-5 5v2h5v-3h3v-1z" opacity=".35"/></g></svg>

<svg viewBox="0 0 24 24" xmlns="http://www.w3.org/2000/svg">
  <path
     style="fill:#555753"
     d="M 3 2 L 3 4 L 1 4 L 1 6 L 5 6 L 5 2 L 3 2 z M 19 2 L 19 6 L 23 6 L 23 4 L 21 4 L 21 2 L 19 2 z M 7 4 L 7 5 L 9 5 L 9 4 L 7 4 z M 11 4 L 11 5 L 13 5 L 13 4 L 11 4 z M 15 4 L 15 5 L 17 5 L 17 4 L 15 4 z M 3 7 L 3 9 L 4 9 L 4 7 L 3 7 z M 20 7 L 20 9 L 21 9 L 21 7 L 20 7 z M 3 11 L 3 13 L 4 13 L 4 11 L 3 11 z M 16 11 L 16 12.503906 C 16.628416 12.975217 16.998772 13.714482 17 14.5 C 17 15.880712 15.880712 17 14.5 17 C 13.713794 16.999386 12.973676 16.628965 12.501953 16 L 11 16 L 11 17.857422 C 12.371429 19.179273 13.804414 19.572266 15.115234 19.572266 L 17.857422 19.572266 L 21.285156 23 L 23 23 L 23 21.285156 L 19.572266 17.857422 L 19.572266 15.115234 C 19.572266 13.60327 19.203659 12.371429 17.857422 11 L 16 11 z M 3 15 L 3 17 L 4 17 L 4 15 L 3 15 z M 1 18 L 1 20 L 3 20 L 3 22 L 5 22 L 5 18 L 1 18 z M 7 19 L 7 20 L 9 20 L 9 19 L 7 19 z "
     />
  <path
     style="opacity:0.35;fill:#555753"
     d="M 17 7 A 2 2 0 0 0 15 9 A 2 2 0 0 0 15.269531 10 L 18.728516 10 A 2 2 0 0 0 19 9 A 2 2 0 0 0 17 7 z M 10 11 L 5 16 L 5 18 L 10 18 L 10 15 L 13 15 L 13 14 L 10 11 z "
     />
</svg>
